packages/bezier-icons/icons/spotify.svg

<svg width="24" height="24" viewBox="0 0 24 24" fill="none" xmlns="http://www.w3.org/2000/svg">
<path d="M17.9155 10.8654C14.692 8.95104 9.37517 8.77517 6.2979 9.70892C5.80365 9.85892 5.28127 9.57992 5.13164 9.08567C4.98202 8.59104 5.26065 8.06904 5.7549 7.91866C9.28742 6.84653 15.1592 7.05353 18.8702 9.2563C19.315 9.5203 19.4605 10.094 19.1969 10.5381C18.9332 10.9824 18.3587 11.1291 17.9151 10.8651M17.8097 13.7004C17.5836 14.0676 17.1036 14.1827 16.7372 13.9573C14.0499 12.3054 9.95192 11.8269 6.77265 12.7918C6.36053 12.9163 5.92477 12.6838 5.79952 12.2724C5.6754 11.8603 5.9079 11.4257 6.31928 11.3001C9.95117 10.1979 14.4662 10.7316 17.5528 12.6283C17.9192 12.8541 18.0347 13.3341 17.8093 13.7001M16.5857 16.423C16.4068 16.7166 16.0236 16.81 15.73 16.6311C15.7296 16.6311 15.7292 16.6307 15.7288 16.6303C13.3806 15.1952 10.4248 14.8712 6.94403 15.6662C6.60878 15.7431 6.27465 15.5331 6.19778 15.1978C6.1209 14.863 6.32978 14.5288 6.66503 14.452C6.6654 14.452 6.66615 14.452 6.66653 14.452C10.4758 13.5812 13.7432 13.9558 16.3791 15.5665C16.6727 15.7461 16.7657 16.1297 16.5861 16.4233M11.9998 2C6.47715 2 2 6.47715 2 11.9998C2 17.5225 6.47715 22 11.9998 22C17.5225 22 22 17.5232 22 11.9998C22 6.4764 17.5228 2 11.9998 2Z" fill="#313234"/>
</svg>

<svg xmlns="http://www.w3.org/2000/svg" width="24" height="24" fill="none" viewBox="0 0 24 24"><path fill="#313234" d="M17.916 10.865c-3.224-1.914-8.54-2.09-11.618-1.156a.935.935 0 1 1-.543-1.79c3.532-1.072 9.404-.865 13.115 1.337a.935.935 0 1 1-.955 1.61M17.81 13.7a.78.78 0 0 1-1.073.257c-2.687-1.652-6.785-2.13-9.964-1.165a.78.78 0 0 1-.973-.52.78.78 0 0 1 .52-.972c3.631-1.102 8.146-.568 11.233 1.328a.78.78 0 0 1 .256 1.072m-1.223 2.723a.623.623 0 0 1-.857.207c-2.348-1.435-5.304-1.759-8.785-.964a.623.623 0 0 1-.279-1.214h.002c3.809-.87 7.076-.496 9.712 1.114.294.18.387.564.207.857M12 2C6.477 2 2 6.477 2 12s4.477 10 10 10 10-4.477 10-10c0-5.524-4.477-10-10-10"/></svg>
